public/assets/misc/ValorantCreditsSpent.svg

<svg xmlns="http://www.w3.org/2000/svg" width="9" height="8" viewBox="0 0 9 8" fill="none">
<path fill-rule="evenodd" clip-rule="evenodd" d="M6.04745 6.92766L7.11979 8L8.25098 6.86881L7.17863 5.79647C7.50002 5.27382 7.68538 4.65856 7.68538 4C7.68538 3.34144 7.50002 2.72618 7.17863 2.20353L8.25098 1.13119L7.11979 0L6.04745 1.07234C5.5248 0.750952 4.90953 0.565594 4.25098 0.565594C3.59242 0.565594 2.97715 0.750952 2.45451 1.07234L1.38216 0L0.250977 1.13119L1.32332 2.20353C1.00193 2.72618 0.81657 3.34144 0.81657 4C0.81657 4.65856 1.00193 5.27382 1.32332 5.79647L0.250977 6.86881L1.38216 8L2.45451 6.92766C2.97715 7.24905 3.59242 7.43441 4.25098 7.43441C4.90953 7.43441 5.5248 7.24905 6.04745 6.92766ZM4.25106 6.37761C5.5642 6.37761 6.62872 5.3131 6.62872 3.99995C6.62872 2.6868 5.5642 1.62228 4.25106 1.62228C2.93791 1.62228 1.87339 2.6868 1.87339 3.99995C1.87339 5.3131 2.93791 6.37761 4.25106 6.37761Z" fill="#ff4557"/>
</svg>

<?xml version="1.0" encoding="UTF-8"?>
<svg id="Layer_1" xmlns="http://www.w3.org/2000/svg" version="1.1" viewBox="0 0 9 8">
  <!-- Generator: Adobe Illustrator 29.3.1, SVG Export Plug-In . SVG Version: 2.1.0 Build 151)  -->
  <defs>
    <style>
      .st0 {
        fill: #f4e9a0;
        fill-rule: evenodd;
      }
    </style>
  </defs>
  <path class="st0" d="M6,6.9l1.1,1.1,1.1-1.1-1.1-1.1c.3-.5.5-1.1.5-1.8s-.2-1.3-.5-1.8l1.1-1.1-1.1-1.1-1.1,1.1c-.5-.3-1.1-.5-1.8-.5s-1.3.2-1.8.5L1.4,0,.3,1.1l1.1,1.1c-.3.5-.5,1.1-.5,1.8s.2,1.3.5,1.8l-1.1,1.1,1.1,1.1,1.1-1.1c.5.3,1.1.5,1.8.5s1.3-.2,1.8-.5ZM4.3,6.4c1.3,0,2.4-1.1,2.4-2.4s-1.1-2.4-2.4-2.4S1.9,2.7,1.9,4s1.1,2.4,2.4,2.4Z"/>
</svg>
